X: 9
T: JIGS: Humours of Glendart Set
T: Humours of Glendart
C: C: Trad.; S: Various
C: Set Leaders: Mars, Tania, Sophie, Anton
Z: [Unedited]; Anon. / JACKB / Phantom Button at The Session
N: https://thesession.org/members/26966/sets/94272
R: Jig
M: 6/8
L: 1/8
Q: 3/8=116
K: Dmaj
BAF AFD|FEF DFA|BAF AFD|FEE E2 A|
BAF AFD|FEF DFA|dcB AFE|FDD D2 A:||
def d2 B|~A3 AFA|def d2 f|ede fdB|
def d2 B|~A3 ABc|dcB AFE|FDD D2 A:||
T: Battering Ram
K: Gmaj
|:dBG BAG|dBG G2g|dBG AGE|GED D2B|
dBG BAG|B/c/dB BAG|A3 BAB|1 GED D2B:|2 GED D2d||
|:deg aga|bge edB|deg a3|bge ega|
bag age|ged e/f/ge|dBG AGE|GED D2d:||
|:B2G A2G|B2D D3|BAG AGE|GED Ddc|
B2G A2G|B/c/dB BAG|AGA BAB|GED D2d:||
T: Jimmy Ward's
K: Gmaj
|:G3 GAB|AGE GED|~G3 AGE|GED DEF|
G3 GAB|AGE GAB|cBA BGE|1 DED DEF:|2 DED D3||
|:cBA BAG|ABA AGE|cBA BGE|EDE GAB|
cBA BAG|AAA ABc|dcA AGE|1 GED DAB:|2 GED DEF||

